X: 1
T: You're a Grand Old Flag
M: C|
L: 1/8
P: Flute
Q: 1/2=120
C: by George M. Cohan
K: F
f6c2 | a6f2 | (g^fga)b2=b2 | c'2z2c'2a2 [|:\
f4f4 | f4d2c2 | f2g4e2 | f4d2c2 |\
f4d2c2 | f4d2c2 | e2(ef edef | g2)z2c2d2 |
e4f4 | (gfefg2)c2 | f4g4 | (agfga2)f2 |\
g2a4f2 | g2a4f2 | g2(ed efga | g2)z2c'2a2 |\
f4f4 | f4d2c2 | f2g4e2 | f4e2_e2 |
d4^f2a2 | d4a4 | g2dd (gdgb | d'2)z2c'4 |\
z2c'c'c'2c'2 | z2c'2z2c'2 | z2c'c'c'2c'2 | c'4e2c2 |\
d2f4d2 | f4e4 | f2a^ga2b2 | c'2z2z4 |]
